src/assets/img/nftDashboard/nft_user.svg

<svg fill="none" height="48" viewBox="0 0 48 48" width="48" xmlns="http://www.w3.org/2000/svg"><g stroke="#fff" stroke-width="2.26562"><path d="m24.3676 27.7449c6.4971 0 11.764-5.2669 11.764-11.764 0-6.49715-5.2669-11.7641-11.764-11.7641s-11.7641 5.26695-11.7641 11.7641c0 6.4971 5.267 11.764 11.7641 11.764z" stroke-miterlimit="10"/><path d="m6.53601 44.0848c1.80792-3.1293 4.40749-5.7278 7.53759-7.5343s6.6805-2.7576 10.2945-2.7575c3.6141 0 7.1644.9511 10.2945 2.7577s5.7296 4.4051 7.5375 7.5345" stroke-linecap="round" stroke-linejoin="round"/></g></svg>

<svg width="48" height="48" viewBox="0 0 48 48" fill="none" xmlns="http://www.w3.org/2000/svg">
<path d="M24.3676 27.7449C30.8647 27.7449 36.1316 22.478 36.1316 15.9809C36.1316 9.48375 30.8647 4.2168 24.3676 4.2168C17.8705 4.2168 12.6035 9.48375 12.6035 15.9809C12.6035 22.478 17.8705 27.7449 24.3676 27.7449Z" stroke="white" stroke-width="2.26562" stroke-miterlimit="10"/>
<path d="M6.53601 44.0848C8.34393 40.9555 10.9435 38.357 14.0736 36.5505C17.2037 34.744 20.7541 33.7929 24.3681 33.793C27.9822 33.793 31.5325 34.7441 34.6626 36.5507C37.7927 38.3573 40.3922 40.9558 42.2001 44.0852" stroke="white" stroke-width="2.26562" stroke-linecap="round" stroke-linejoin="round"/>
</svg>
